public/images/icons/mapmarker.svg

<svg xmlns="http://www.w3.org/2000/svg" fill="none" viewBox="0 0 87 122">
  <path class="stroke" stroke="#fff" stroke-width="4" d="m43.0833 115.667-1.4842 1.34 1.4842 1.643 1.4842-1.643-1.4842-1.34Zm0 0c1.4842 1.34 1.4846 1.34 1.4851 1.339l.0018-.002.0062-.007.023-.025.0875-.098c.0764-.085.1886-.211.3343-.376.2914-.33.7167-.816 1.2567-1.442 1.0799-1.254 2.6193-3.074 4.4651-5.348 3.6898-4.546 8.6129-10.9197 13.5399-18.2222 4.9232-7.2969 9.8751-15.5579 13.6022-23.8774 3.7154-8.2933 6.2816-16.7923 6.2816-24.5251A41.0836 41.0836 0 0 0 14.033 14.033 41.0835 41.0835 0 0 0 2 43.0833c0 7.7328 2.5662 16.2318 6.2816 24.5251 3.7271 8.3195 8.679 16.5805 13.6021 23.8774 4.9271 7.3025 9.8501 13.6762 13.5399 18.2222 1.8458 2.274 3.3852 4.094 4.4652 5.348.54.626.9652 1.112 1.2566 1.442.1457.165.258.291.3344.376l.0874.098.023.025.0063.007.0017.002c.0006.001.0009.001 1.4851-1.339Z"/>
  <path class="bg" fill="#fff" d="M60 44c0 9.3888-7.6112 17-17 17s-17-7.6112-17-17 7.6112-17 17-17 17 7.6112 17 17Z"/>
  <path class="fg" fill="#1853BA" d="M43.0833 57.0417a13.9584 13.9584 0 1 1 .0001-27.9168 13.9584 13.9584 0 0 1-.0001 27.9168Zm0-53.0417a39.0837 39.0837 0 0 0-27.6361 11.4472A39.0837 39.0837 0 0 0 4 43.0833c0 29.3125 39.0833 72.5837 39.0833 72.5837s39.0834-43.2712 39.0834-72.5837A39.0834 39.0834 0 0 0 43.0833 4Z"/>
</svg>

<svg viewBox="0 0 87 122" fill="none" xmlns="http://www.w3.org/2000/svg">
    <path stroke="white" stroke-width="4" d="M43.0833 115.667L41.5991 117.007L43.0833 118.65L44.5675 117.007L43.0833 115.667ZM43.0833 115.667C44.5675 117.007 44.5679 117.007 44.5684 117.006L44.5702 117.004L44.5764 116.997L44.5994 116.972L44.6869 116.874C44.7633 116.789 44.8755 116.663 45.0212 116.498C45.3126 116.168 45.7379 115.682 46.2779 115.056C47.3578 113.802 48.8972 111.982 50.743 109.708C54.4328 105.162 59.3559 98.7883 64.2829 91.4858C69.2061 84.1889 74.158 75.9279 77.8851 67.6084C81.6005 59.3151 84.1667 50.8161 84.1667 43.0833C84.1667 32.1874 79.8382 21.7376 72.1336 14.033C64.429 6.32841 53.9793 2 43.0833 2C32.1874 2 21.7376 6.32841 14.033 14.033C6.32841 21.7376 2 32.1874 2 43.0833C2 50.8161 4.56616 59.3151 8.28156 67.6084C12.0087 75.9279 16.9606 84.1889 21.8837 91.4858C26.8108 98.7883 31.7338 105.162 35.4236 109.708C37.2694 111.982 38.8088 113.802 39.8888 115.056C40.4288 115.682 40.854 116.168 41.1454 116.498C41.2911 116.663 41.4034 116.789 41.4798 116.874L41.5672 116.972L41.5902 116.997L41.5965 117.004L41.5982 117.006C41.5988 117.007 41.5991 117.007 43.0833 115.667Z" />
    <path fill="white" d="M60 44C60 53.3888 52.3888 61 43 61C33.6112 61 26 53.3888 26 44C26 34.6112 33.6112 27 43 27C52.3888 27 60 34.6112 60 44Z"/>
    <path fill="#1853BA" d="M43.0833 57.0417C39.3814 57.0417 35.831 55.5711 33.2133 52.9534C30.5956 50.3357 29.125 46.7853 29.125 43.0833C29.125 39.3814 30.5956 35.831 33.2133 33.2133C35.831 30.5956 39.3814 29.125 43.0833 29.125C46.7853 29.125 50.3357 30.5956 52.9534 33.2133C55.5711 35.831 57.0417 39.3814 57.0417 43.0833C57.0417 44.9164 56.6806 46.7315 55.9791 48.425C55.2777 50.1185 54.2495 51.6572 52.9534 52.9534C51.6572 54.2495 50.1185 55.2777 48.425 55.9791C46.7315 56.6806 44.9164 57.0417 43.0833 57.0417ZM43.0833 4C32.7178 4 22.7768 8.1177 15.4472 15.4472C8.1177 22.7768 4 32.7178 4 43.0833C4 72.3958 43.0833 115.667 43.0833 115.667C43.0833 115.667 82.1667 72.3958 82.1667 43.0833C82.1667 32.7178 78.049 22.7768 70.7194 15.4472C63.3899 8.1177 53.4489 4 43.0833 4Z"/>
</svg>
